X: 1
T: Thieving
R: jig
S: handwritten MS
Z: John Chambers <jc@trillian.mit.edu> 2002-9-15
M: 6/8
L: 1/8
K: G
D "A"\
| "G"G2G BAG | Bdg dBG | "C"cde "G"dBG | "D7"FAA A2D \
| "G"G2G BAG | Bdg dBG | "C"cde "G"dcB | "D7"AGF "G"G2 ||
d "B"\
| "G"g2g "D"fed | "C"efg "G"dBG | "C"cde "G"dBG | "D7"FAA A2d \
| "G"g2g "D"fed | "C"efg "G"dBG | "C"cde "G"dcB | "D7"AGF "G"G2 |]
